; generated by PrusaSlicer 2.5.0+win64 on 2022-09-30 at 04:08:19 UTC


;
;

;
;
; 

; external perimeters extrusion width = 0.45mm
; perimeters extrusion width = 0.45mm
; infill extrusion width = 0.45mm
; solid infill extrusion width = 0.45mm
; top infill extrusion width = 0.40mm
; first layer extrusion width = 0.42mm

M73 P0 R114
M201 X2500 Y2500 Z400 E5000 ; sets maximum accelerations, mm/sec^2
M203 X180 Y180 Z12 E80 ; sets maximum feedrates, mm / sec
M204 P1250 R1250 T2500 ; sets acceleration (P, T) and retract acceleration (R), mm/sec^2
M205 X8.00 Y8.00 Z2.00 E10.00 ; sets the jerk limits, mm/sec
M205 S0 T0 ; sets the minimum extruding and travel feed rate, mm/sec
M107
;TYPE:Custom
M862.3 P "MINI" ; printer model check
G90 ; use absolute coordinates
M83 ; extruder relative mode
M104 S170 ; set extruder temp for bed leveling
M140 S60 ; set bed temp
M109 R170 ; wait for bed leveling temp
M190 S60 ; wait for bed temp
M204 T1250 ; set travel acceleration
G28 ; home all without mesh bed level
G29 ; mesh bed leveling 
M204 T2500 ; restore travel acceleration
M104 S215 ; set extruder temp
G92 E0
G1 Y-2 X179 F2400
G1 Z3 F720
M109 S215 ; wait for extruder temp

; intro line
G1 X170 F1000
G1 Z0.2 F720
G1 X110 E8 F900
G1 X40 E10 F700
G92 E0

M221 S95 ; set flow
G21 ; set units to millimeters
G90 ; use absolute coordinates
M83 ; use relative distances for extrusion
M900 K0.2 ; Filament gcode LA 1.5
; ; Filament gcode LA 1.0
M107
;LAYER_CHANGE
;Z:0.2
;HEIGHT:0.2
;BEFORE_LAYER_CHANGE
G92 E0.0
;0.2


G1 E-3.2 F4200
G1 Z.2 F720
;AFTER_LAYER_CHANGE
;0.2
G1 Z.4
G1 X60.26 Y60.26 F9000
G1 Z.2 F720
G1 E3.2 F2400
M204 P800
;TYPE:Skirt/Brim
;WIDTH:0.42
G1 F1200
G1 X88.319 Y32.201 E1.24418
G1 X89.52 Y31.554 E.04278
G1 X90.879 Y31.674 E.04278
G1 X91.681 Y32.201 E.03008
G1 X147.799 Y88.319 E2.48837
G1 X148.446 Y89.52 E.04278
M73 P0 R113
G1 X148.326 Y90.879 E.04278
G1 X147.799 Y91.681 E.03008
G1 X91.681 Y147.799 E2.48837
G1 X90.48 Y148.446 E.04278
G1 X89.121 Y148.326 E.04278
G1 X88.319 Y147.799 E.03008
G1 X32.201 Y91.681 E2.48837
G1 X31.554 Y90.48 E.04278
G1 X31.674 Y89.121 E.04278
G1 X32.201 Y88.319 E.03008
G1 X60.218 Y60.303 E1.2423
M204 P1000
; printing object Gem.stl id:0 copy 0
G1 E-2.24 F4200
;WIPE_START
G1 F7200
G1 X61.381 Y59.139 E-.912
;WIPE_END
G1 E-.048 F4200
G1 Z.4 F720
G1 X90 Y145.005 F9000
G1 Z.2 F720
G1 E3.2 F2400
M204 P800
;TYPE:Perimeter
;WIDTH:0.419999
G1 F1200
G1 X34.995 Y90 E2.43901
G1 X90 Y34.995 E2.43901
G1 X145.005 Y90 E2.43901
G1 X90.042 Y144.962 E2.43712
M204 P1000
G1 X90 Y145.538 F9000
M204 P800
;TYPE:External perimeter
G1 F1200
G1 X34.462 Y90 E2.46265
G1 X90 Y34.462 E2.46265
G1 X145.538 Y90 E2.46265
G1 X90.042 Y145.496 E2.46077
M204 P1000
G1 X89.8 Y145.192 F9000
G1 E-2.24 F4200
;WIPE_START
G1 F7200
G1 X88.878 Y144.333 E-.912
;WIPE_END
G1 E-.048 F4200
G1 Z.4 F720
G1 X89.879 Y35.276 F9000
G1 Z.2 F720
G1 E3.2 F2400
M204 P800
;TYPE:Solid infill
;WIDTH:0.421457
G1 F1200
G1 X144.604 Y90.001 E2.43597
G1 X144.337 Y90.268 E.01191
M73 P1 R113
G1 X89.732 Y35.663 E2.43063
G1 X89.464 Y35.931 E.01191
G1 X144.069 Y90.536 E2.43063
G1 X143.801 Y90.804 E.01191
G1 X89.196 Y36.199 E2.43063
G1 X88.929 Y36.466 E.01191
M73 P1 R112
G1 X143.534 Y91.071 E2.43063
G1 X143.266 Y91.339 E.01191
G1 X88.661 Y36.734 E2.43063
G1 X88.393 Y37.002 E.01191
G1 X142.998 Y91.607 E2.43063
G1 X142.731 Y91.874 E.01191
G1 X88.126 Y37.269 E2.43063
G1 X87.858 Y37.537 E.01191
G1 X142.463 Y92.142 E2.43063
G1 X142.195 Y92.41 E.01191
G1 X87.59 Y37.805 E2.43063
G1 X87.323 Y38.072 E.01191
G1 X141.928 Y92.677 E2.43063
G1 X141.66 Y92.945 E.01191
G1 X87.055 Y38.34 E2.43063
G1 X86.787 Y38.608 E.01191
G1 X141.392 Y93.213 E2.43063
G1 X141.125 Y93.48 E.01191
G1 X86.52 Y38.875 E2.43063
G1 X86.252 Y39.143 E.01191
G1 X140.857 Y93.748 E2.43063
G1 X140.589 Y94.016 E.01191
G1 X85.984 Y39.411 E2.43063
G1 X85.717 Y39.678 E.01191
G1 X140.322 Y94.283 E2.43063
G1 X140.054 Y94.551 E.01191
G1 X85.449 Y39.946 E2.43063
G1 X85.181 Y40.214 E.01191
G1 X139.786 Y94.819 E2.43063
G1 X139.519 Y95.086 E.01191
M73 P2 R111
G1 X84.914 Y40.481 E2.43063
G1 X84.646 Y40.749 E.01191
G1 X139.251 Y95.354 E2.43063
G1 X138.983 Y95.622 E.01191
G1 X84.378 Y41.017 E2.43063
G1 X84.111 Y41.284 E.01191
G1 X138.716 Y95.889 E2.43063
G1 X138.448 Y96.157 E.01191
G1 X83.843 Y41.552 E2.43063
G1 X83.575 Y41.82 E.01191
G1 X138.18 Y96.425 E2.43063
G1 X137.913 Y96.692 E.01191
G1 X83.308 Y42.087 E2.43063
G1 X83.04 Y42.355 E.01191
G1 X137.645 Y96.96 E2.43063
G1 X137.377 Y97.228 E.01191
G1 X82.772 Y42.623 E2.43063
G1 X82.505 Y42.89 E.01191
G1 X137.11 Y97.495 E2.43063
G1 X136.842 Y97.763 E.01191
G1 X82.237 Y43.158 E2.43063
G1 X81.969 Y43.426 E.01191
G1 X136.574 Y98.031 E2.43063
G1 X136.307 Y98.298 E.01191
G1 X81.702 Y43.693 E2.43063
G1 X81.434 Y43.961 E.01191
G1 X136.039 Y98.566 E2.43063
G1 X135.771 Y98.834 E.01191
G1 X81.166 Y44.229 E2.43063
G1 X80.899 Y44.496 E.01191
G1 X135.504 Y99.101 E2.43063
G1 X135.236 Y99.369 E.01191
M73 P2 R110
G1 X80.631 Y44.764 E2.43063
G1 X80.363 Y45.032 E.01191
M73 P3 R110
G1 X134.968 Y99.637 E2.43063
G1 X134.701 Y99.904 E.01191
G1 X80.096 Y45.299 E2.43063
G1 X79.828 Y45.567 E.01191
G1 X134.433 Y100.172 E2.43063
G1 X134.165 Y100.44 E.01191
G1 X79.56 Y45.835 E2.43063
G1 X79.293 Y46.102 E.01191
G1 X133.898 Y100.707 E2.43063
G1 X133.63 Y100.975 E.01191
G1 X79.025 Y46.37 E2.43063
G1 X78.757 Y46.638 E.01191
G1 X133.362 Y101.243 E2.43063
G1 X133.095 Y101.51 E.01191
G1 X78.49 Y46.905 E2.43063
G1 X78.222 Y47.173 E.01191
G1 X132.827 Y101.778 E2.43063
G1 X132.559 Y102.046 E.01191
G1 X77.954 Y47.441 E2.43063
G1 X77.687 Y47.708 E.01191
G1 X132.292 Y102.313 E2.43063
G1 X132.024 Y102.581 E.01191
G1 X77.419 Y47.976 E2.43063
G1 X77.151 Y48.244 E.01191
G1 X131.756 Y102.849 E2.43063
G1 X131.489 Y103.116 E.01191
G1 X76.884 Y48.511 E2.43063
G1 X76.616 Y48.779 E.01191
M73 P3 R109
G1 X131.221 Y103.384 E2.43063
G1 X130.953 Y103.652 E.01191
G1 X76.348 Y49.047 E2.43063
G1 X76.081 Y49.314 E.01191
G1 X130.686 Y103.919 E2.43063
G1 X130.418 Y104.187 E.01191
G1 X75.813 Y49.582 E2.43063
G1 X75.545 Y49.85 E.01191
M73 P4 R109
G1 X130.15 Y104.455 E2.43063
G1 X129.883 Y104.722 E.01191
G1 X75.278 Y50.117 E2.43063
G1 X75.01 Y50.385 E.01191
G1 X129.615 Y104.99 E2.43063
G1 X129.347 Y105.258 E.01191
G1 X74.742 Y50.653 E2.43063
G1 X74.475 Y50.92 E.01191
G1 X129.08 Y105.525 E2.43063
G1 X128.812 Y105.793 E.01191
G1 X74.207 Y51.188 E2.43063
G1 X73.939 Y51.456 E.01191
G1 X128.544 Y106.061 E2.43063
G1 X128.277 Y106.328 E.01191
G1 X73.672 Y51.723 E2.43063
G1 X73.404 Y51.991 E.01191
G1 X128.009 Y106.596 E2.43063
G1 X127.741 Y106.864 E.01191
G1 X73.136 Y52.259 E2.43063
G1 X72.869 Y52.526 E.01191
G1 X127.474 Y107.131 E2.43063
G1 X127.206 Y107.399 E.01191
G1 X72.601 Y52.794 E2.43063
G1 X72.333 Y53.062 E.01191
M73 P4 R108
G1 X126.938 Y107.667 E2.43063
G1 X126.671 Y107.934 E.01191
G1 X72.066 Y53.329 E2.43063
G1 X71.798 Y53.597 E.01191
G1 X126.403 Y108.202 E2.43063
G1 X126.135 Y108.47 E.01191
G1 X71.53 Y53.865 E2.43063
G1 X71.263 Y54.132 E.01191
G1 X125.868 Y108.737 E2.43063
G1 X125.6 Y109.005 E.01191
G1 X70.995 Y54.4 E2.43063
G1 X70.727 Y54.668 E.01191
M73 P5 R108
G1 X125.332 Y109.273 E2.43063
G1 X125.065 Y109.54 E.01191
G1 X70.46 Y54.935 E2.43063
G1 X70.192 Y55.203 E.01191
G1 X124.797 Y109.808 E2.43063
G1 X124.529 Y110.076 E.01191
G1 X69.924 Y55.471 E2.43063
G1 X69.657 Y55.738 E.01191
G1 X124.262 Y110.343 E2.43063
G1 X123.994 Y110.611 E.01191
G1 X69.389 Y56.006 E2.43063
G1 X69.121 Y56.274 E.01191
G1 X123.726 Y110.879 E2.43063
G1 X123.459 Y111.146 E.01191
G1 X68.854 Y56.541 E2.43063
G1 X68.586 Y56.809 E.01191
G1 X123.191 Y111.414 E2.43063
G1 X122.923 Y111.682 E.01191
M73 P5 R107
G1 X68.318 Y57.077 E2.43063
G1 X68.051 Y57.344 E.01191
G1 X122.656 Y111.949 E2.43063
G1 X122.388 Y112.217 E.01191
G1 X67.783 Y57.612 E2.43063
G1 X67.515 Y57.88 E.01191
G1 X122.12 Y112.485 E2.43063
G1 X121.853 Y112.752 E.01191
G1 X67.248 Y58.147 E2.43063
G1 X66.98 Y58.415 E.01191
G1 X121.585 Y113.02 E2.43063
G1 X121.317 Y113.288 E.01191
G1 X66.713 Y58.683 E2.43063
G1 X66.445 Y58.95 E.01191
G1 X121.05 Y113.555 E2.43063
G1 X120.782 Y113.823 E.01191
M73 P6 R107
G1 X66.177 Y59.218 E2.43063
G1 X65.91 Y59.486 E.01191
G1 X120.514 Y114.09 E2.43063
G1 X120.247 Y114.358 E.01191
G1 X65.642 Y59.753 E2.43063
G1 X65.374 Y60.021 E.01191
G1 X119.979 Y114.626 E2.43063
G1 X119.711 Y114.893 E.01191
G1 X65.107 Y60.289 E2.43063
G1 X64.839 Y60.556 E.01191
G1 X119.444 Y115.161 E2.43063
G1 X119.176 Y115.429 E.01191
G1 X64.571 Y60.824 E2.43063
G1 X64.304 Y61.092 E.01191
M73 P6 R106
G1 X118.908 Y115.696 E2.43063
G1 X118.641 Y115.964 E.01191
G1 X64.036 Y61.359 E2.43063
G1 X63.768 Y61.627 E.01191
G1 X118.373 Y116.232 E2.43063
G1 X118.105 Y116.499 E.01191
G1 X63.501 Y61.895 E2.43063
G1 X63.233 Y62.162 E.01191
G1 X117.838 Y116.767 E2.43063
G1 X117.57 Y117.035 E.01191
G1 X62.965 Y62.43 E2.43063
G1 X62.698 Y62.698 E.01191
G1 X117.302 Y117.302 E2.43063
G1 X117.035 Y117.57 E.01191
G1 X62.43 Y62.965 E2.43063
G1 X62.162 Y63.233 E.01191
G1 X116.767 Y117.838 E2.43063
G1 X116.499 Y118.105 E.01191
G1 X61.895 Y63.501 E2.43063
G1 X61.627 Y63.768 E.01191
G1 X116.232 Y118.373 E2.43063
G1 X115.964 Y118.641 E.01191
M73 P7 R106
G1 X61.359 Y64.036 E2.43063
G1 X61.092 Y64.304 E.01191
G1 X115.696 Y118.908 E2.43063
G1 X115.429 Y119.176 E.01191
G1 X60.824 Y64.571 E2.43063
G1 X60.556 Y64.839 E.01191
G1 X115.161 Y119.444 E2.43063
G1 X114.893 Y119.711 E.01191
G1 X60.289 Y65.107 E2.43063
G1 X60.021 Y65.374 E.01191
M73 P7 R105
G1 X114.626 Y119.979 E2.43063
G1 X114.358 Y120.247 E.01191
G1 X59.753 Y65.642 E2.43063
G1 X59.486 Y65.91 E.01191
G1 X114.09 Y120.514 E2.43063
G1 X113.823 Y120.782 E.01191
G1 X59.218 Y66.177 E2.43063
G1 X58.95 Y66.445 E.01191
G1 X113.555 Y121.05 E2.43063
G1 X113.287 Y121.317 E.01191
G1 X58.683 Y66.713 E2.43063
G1 X58.415 Y66.98 E.01191
G1 X113.02 Y121.585 E2.43063
G1 X112.752 Y121.853 E.01191
G1 X58.147 Y67.248 E2.43063
G1 X57.88 Y67.516 E.01191
G1 X112.484 Y122.12 E2.43063
G1 X112.217 Y122.388 E.01191
G1 X57.612 Y67.783 E2.43063
G1 X57.344 Y68.051 E.01191
G1 X111.949 Y122.656 E2.43063
G1 X111.681 Y122.923 E.01191
G1 X57.077 Y68.319 E2.43063
G1 X56.809 Y68.586 E.01191
G1 X111.414 Y123.191 E2.43063
G1 X111.146 Y123.459 E.01191
M73 P8 R105
G1 X56.541 Y68.854 E2.43063
G1 X56.274 Y69.122 E.01191
G1 X110.878 Y123.726 E2.43063
G1 X110.611 Y123.994 E.01191
M73 P8 R104
G1 X56.006 Y69.389 E2.43063
G1 X55.738 Y69.657 E.01191
G1 X110.343 Y124.262 E2.43063
G1 X110.075 Y124.529 E.01191
G1 X55.471 Y69.925 E2.43063
G1 X55.203 Y70.192 E.01191
G1 X109.808 Y124.797 E2.43063
G1 X109.54 Y125.065 E.01191
G1 X54.935 Y70.46 E2.43063
G1 X54.668 Y70.728 E.01191
G1 X109.272 Y125.332 E2.43063
G1 X109.005 Y125.6 E.01191
G1 X54.4 Y70.995 E2.43063
G1 X54.132 Y71.263 E.01191
G1 X108.737 Y125.868 E2.43063
G1 X108.469 Y126.135 E.01191
G1 X53.865 Y71.531 E2.43063
G1 X53.597 Y71.798 E.01191
G1 X108.202 Y126.403 E2.43063
G1 X107.934 Y126.671 E.01191
G1 X53.329 Y72.066 E2.43063
G1 X53.062 Y72.334 E.01191
G1 X107.666 Y126.938 E2.43063
G1 X107.399 Y127.206 E.01191
G1 X52.794 Y72.601 E2.43063
G1 X52.526 Y72.869 E.01191
G1 X107.131 Y127.474 E2.43063
G1 X106.863 Y127.741 E.01191
G1 X52.259 Y73.137 E2.43063
G1 X51.991 Y73.404 E.01191
M73 P9 R104
G1 X106.596 Y128.009 E2.43063
G1 X106.328 Y128.277 E.01191
M73 P9 R103
G1 X51.723 Y73.672 E2.43063
G1 X51.456 Y73.94 E.01191
G1 X106.06 Y128.544 E2.43063
G1 X105.793 Y128.812 E.01191
G1 X51.188 Y74.207 E2.43063
G1 X50.92 Y74.475 E.01191
G1 X105.525 Y129.08 E2.43063
G1 X105.258 Y129.347 E.01191
G1 X50.653 Y74.742 E2.43063
G1 X50.385 Y75.01 E.01191
G1 X104.99 Y129.615 E2.43063
G1 X104.722 Y129.883 E.01191
G1 X50.117 Y75.278 E2.43063
G1 X49.85 Y75.545 E.01191
G1 X104.455 Y130.15 E2.43063
G1 X104.187 Y130.418 E.01191
G1 X49.582 Y75.813 E2.43063
G1 X49.314 Y76.081 E.01191
G1 X103.919 Y130.686 E2.43063
G1 X103.652 Y130.953 E.01191
G1 X49.047 Y76.348 E2.43063
G1 X48.779 Y76.616 E.01191
G1 X103.384 Y131.221 E2.43063
G1 X103.116 Y131.489 E.01191
G1 X48.511 Y76.884 E2.43063
G1 X48.244 Y77.151 E.01191
G1 X102.849 Y131.756 E2.43063
G1 X102.581 Y132.024 E.01191
G1 X47.976 Y77.419 E2.43063
G1 X47.708 Y77.687 E.01191
M73 P9 R102
G1 X102.313 Y132.292 E2.43063
G1 X102.046 Y132.559 E.01191
G1 X47.441 Y77.954 E2.43063
G1 X47.173 Y78.222 E.01191
M73 P10 R102
G1 X101.778 Y132.827 E2.43063
G1 X101.51 Y133.095 E.01191
G1 X46.905 Y78.49 E2.43063
G1 X46.638 Y78.757 E.01191
G1 X101.243 Y133.362 E2.43063
G1 X100.975 Y133.63 E.01191
G1 X46.37 Y79.025 E2.43063
G1 X46.102 Y79.293 E.01191
G1 X100.707 Y133.898 E2.43063
G1 X100.44 Y134.165 E.01191
G1 X45.835 Y79.56 E2.43063
G1 X45.567 Y79.828 E.01191
G1 X100.172 Y134.433 E2.43063
G1 X99.904 Y134.701 E.01191
G1 X45.299 Y80.096 E2.43063
G1 X45.032 Y80.363 E.01191
G1 X99.637 Y134.968 E2.43063
G1 X99.369 Y135.236 E.01191
G1 X44.764 Y80.631 E2.43063
G1 X44.496 Y80.899 E.01191
G1 X99.101 Y135.504 E2.43063
G1 X98.834 Y135.771 E.01191
G1 X44.229 Y81.166 E2.43063
G1 X43.961 Y81.434 E.01191
G1 X98.566 Y136.039 E2.43063
G1 X98.298 Y136.307 E.01191
G1 X43.693 Y81.702 E2.43063
G1 X43.426 Y81.969 E.01191
M73 P10 R101
G1 X98.031 Y136.574 E2.43063
G1 X97.763 Y136.842 E.01191
G1 X43.158 Y82.237 E2.43063
G1 X42.89 Y82.505 E.01191
G1 X97.495 Y137.11 E2.43063
G1 X97.228 Y137.377 E.01191
M73 P11 R101
G1 X42.623 Y82.772 E2.43063
G1 X42.355 Y83.04 E.01191
G1 X96.96 Y137.645 E2.43063
G1 X96.692 Y137.913 E.01191
G1 X42.087 Y83.308 E2.43063
G1 X41.82 Y83.575 E.01191
G1 X96.425 Y138.18 E2.43063
G1 X96.157 Y138.448 E.01191
G1 X41.552 Y83.843 E2.43063
G1 X41.284 Y84.111 E.01191
G1 X95.889 Y138.716 E2.43063
G1 X95.622 Y138.983 E.01191
G1 X41.017 Y84.378 E2.43063
G1 X40.749 Y84.646 E.01191
G1 X95.354 Y139.251 E2.43063
G1 X95.086 Y139.519 E.01191
G1 X40.481 Y84.914 E2.43063
G1 X40.214 Y85.181 E.01191
G1 X94.819 Y139.786 E2.43063
G1 X94.551 Y140.054 E.01191
G1 X39.946 Y85.449 E2.43063
G1 X39.678 Y85.717 E.01191
G1 X94.283 Y140.322 E2.43063
G1 X94.016 Y140.589 E.01191
M73 P11 R100
G1 X39.411 Y85.984 E2.43063
G1 X39.143 Y86.252 E.01191
G1 X93.748 Y140.857 E2.43063
G1 X93.48 Y141.125 E.01191
G1 X38.875 Y86.52 E2.43063
G1 X38.608 Y86.787 E.01191
G1 X93.213 Y141.392 E2.43063
G1 X92.945 Y141.66 E.01191
G1 X38.34 Y87.055 E2.43063
G1 X38.072 Y87.323 E.01191
G1 X92.677 Y141.928 E2.43063
G1 X92.41 Y142.195 E.01191
M73 P12 R100
G1 X37.805 Y87.59 E2.43063
G1 X37.537 Y87.858 E.01191
G1 X92.142 Y142.463 E2.43063
G1 X91.874 Y142.731 E.01191
G1 X37.269 Y88.126 E2.43063
G1 X37.002 Y88.393 E.01191
G1 X91.607 Y142.998 E2.43063
G1 X91.339 Y143.266 E.01191
G1 X36.734 Y88.661 E2.43063
G1 X36.466 Y88.929 E.01191
G1 X91.071 Y143.534 E2.43063
G1 X90.804 Y143.801 E.01191
G1 X36.199 Y89.196 E2.43063
G1 X35.931 Y89.464 E.01191
G1 X90.536 Y144.069 E2.43063
G1 X90.268 Y144.337 E.01191
G1 X35.663 Y89.732 E2.43063
G1 X35.396 Y89.999 E.01191
M73 P12 R99
G1 X90.121 Y144.724 E2.43597
M204 P1000
; stop printing object Gem.stl id:0 copy 0
M106 S84.15
;LAYER_CHANGE
;Z:0.35
;HEIGHT:0.15
;BEFORE_LAYER_CHANGE
G92 E0.0
;0.35


G1 E-2.24 F4200
;WIPE_START
G1 F7200
G1 X88.957 Y143.561 E-.912
;WIPE_END
G1 E-.048 F4200
G1 Z.4 F720
;AFTER_LAYER_CHANGE
;0.35
G1 X86.519 Y145.999 F9000
G1 Z.35 F720
G1 E3.2 F2400
;TYPE:Skirt/Brim
;WIDTH:0.42
G1 X32.201 Y91.681 E1.85781
G1 X31.554 Y90.48 E.033
G1 X31.674 Y89.121 E.033
G1 X32.201 Y88.319 E.02321
G1 X88.319 Y32.201 E1.91938
G1 X89.52 Y31.554 E.033
G1 X90.879 Y31.674 E.033
G1 X91.681 Y32.201 E.02321
G1 X147.799 Y88.319 E1.91938
G1 X148.446 Y89.52 E.033
G1 X148.326 Y90.879 E.033
G1 X147.799 Y91.681 E.02321
G1 X91.681 Y147.799 E1.91938
G1 X90.48 Y148.446 E.033
G1 X89.121 Y148.326 E.033
G1 X88.319 Y147.799 E.02321
G1 X86.561 Y146.041 E.06012
; printing object Gem.stl id:0 copy 0
G1 E-2.24 F4200
;WIPE_START
G1 F7200
G1 X85.398 Y144.877 E-.912
;WIPE_END
G1 E-.048 F4200
G1 Z.55 F720
G1 X90 Y144.736 F9000
G1 Z.35 F720
G1 E3.2 F2400
M204 P800
;TYPE:Perimeter
;WIDTH:0.449999
G1 X35.264 Y90 E2.01695
G1 X90 Y35.264 E2.01695
G1 X144.736 Y90 E2.01695
G1 X90.042 Y144.694 E2.01538
M204 P1000
G1 X90 Y145.327 F9000
M204 P800
;TYPE:External perimeter
G1 F1800
G1 X34.673 Y90 E2.03872
G1 X90 Y34.673 E2.03872
