; generated by PrusaSlicer 2.5.0+win64 on 2022-09-29 at 23:15:55 UTC


;
;

;
;
; 

; external perimeters extrusion width = 0.45mm
; perimeters extrusion width = 0.45mm
; infill extrusion width = 0.45mm
; solid infill extrusion width = 0.45mm
; top infill extrusion width = 0.40mm
; first layer extrusion width = 0.42mm

M73 P0 R69
M201 X2500 Y2500 Z400 E5000 ; sets maximum accelerations, mm/sec^2
M203 X180 Y180 Z12 E80 ; sets maximum feedrates, mm / sec
M204 P1250 R1250 T2500 ; sets acceleration (P, T) and retract acceleration (R), mm/sec^2
M205 X8.00 Y8.00 Z2.00 E10.00 ; sets the jerk limits, mm/sec
M205 S0 T0 ; sets the minimum extruding and travel feed rate, mm/sec
M107
;TYPE:Custom
M862.3 P "MINI" ; printer model check
G90 ; use absolute coordinates
M83 ; extruder relative mode
M104 S170 ; set extruder temp for bed leveling
M140 S60 ; set bed temp
M109 R170 ; wait for bed leveling temp
M190 S60 ; wait for bed temp
M204 T1250 ; set travel acceleration
G28 ; home all without mesh bed level
G29 ; mesh bed leveling 
M204 T2500 ; restore travel acceleration
M104 S215 ; set extruder temp
G92 E0
G1 Y-2 X179 F2400
G1 Z3 F720
M109 S215 ; wait for extruder temp

; intro line
G1 X170 F1000
G1 Z0.2 F720
G1 X110 E8 F900
G1 X40 E10 F700
G92 E0

M221 S95 ; set flow
G21 ; set units to millimeters
G90 ; use absolute coordinates
M83 ; use relative distances for extrusion
M900 K0.2 ; Filament gcode LA 1.5
; ; Filament gcode LA 1.0
M107
;LAYER_CHANGE
;Z:0.2
;HEIGHT:0.2
;BEFORE_LAYER_CHANGE
G92 E0.0
;0.2


G1 E-3.2 F4200
G1 Z.2 F720
;AFTER_LAYER_CHANGE
;0.2
G1 Z.4
G1 X65.066 Y65.066 F9000
G1 Z.2 F720
G1 E3.2 F2400
M204 P800
;TYPE:Skirt/Brim
;WIDTH:0.42
G1 F1200
G1 X88.956 Y41.176 E1.05933
G1 X90.157 Y40.528 E.04278
G1 X91.516 Y40.648 E.04278
G1 X92.318 Y41.176 E.03008
G1 X139.038 Y87.896 E2.07164
G1 X139.685 Y89.097 E.04278
G1 X139.565 Y90.456 E.04278
G1 X139.038 Y91.257 E.03008
G1 X92.318 Y137.977 E2.07164
G1 X91.117 Y138.625 E.04278
G1 X89.757 Y138.505 E.04278
G1 X88.956 Y137.977 E.03008
G1 X42.236 Y91.257 E2.07164
G1 X41.589 Y90.056 E.04278
G1 X41.708 Y88.697 E.04278
G1 X42.236 Y87.896 E.03008
G1 X65.023 Y65.108 E1.01043
M204 P1000
; printing object Gem.stl id:0 copy 0
G1 E-2.24 F4200
;WIPE_START
G1 F7200
G1 X66.187 Y63.944 E-.912
;WIPE_END
G1 E-.048 F4200
G1 Z.4 F720
G1 X90.637 Y135.183 F9000
G1 Z.2 F720
G1 E3.2 F2400
M204 P800
;TYPE:Perimeter
;WIDTH:0.419999
G1 F1200
G1 X45.03 Y89.576 E2.02228
G1 X90.637 Y43.969 E2.02228
G1 X136.244 Y89.576 E2.02228
G1 X90.679 Y135.141 E2.0204
M204 P1000
G1 X90.637 Y135.717 F9000
M204 P800
;TYPE:External perimeter
M73 P1 R69
G1 F1200
G1 X44.497 Y89.576 E2.04593
G1 X90.637 Y43.436 E2.04593
M73 P1 R68
G1 X136.777 Y89.576 E2.04593
G1 X90.679 Y135.674 E2.04405
M204 P1000
G1 X90.437 Y135.37 F9000
G1 E-2.24 F4200
;WIPE_START
G1 F7200
G1 X89.514 Y134.511 E-.912
;WIPE_END
G1 E-.048 F4200
G1 Z.4 F720
G1 X90.516 Y44.25 F9000
G1 Z.2 F720
G1 E3.2 F2400
M204 P800
;TYPE:Solid infill
;WIDTH:0.42121
G1 F1200
G1 X135.843 Y89.577 E2.01632
G1 X135.576 Y89.844 E.0119
G1 X90.369 Y44.637 E2.01099
G1 X90.101 Y44.905 E.0119
G1 X135.308 Y90.112 E2.01099
G1 X135.041 Y90.379 E.0119
G1 X89.834 Y45.172 E2.01099
G1 X89.566 Y45.44 E.0119
G1 X134.773 Y90.647 E2.01099
G1 X134.506 Y90.914 E.0119
G1 X89.299 Y45.707 E2.01099
G1 X89.031 Y45.975 E.0119
G1 X134.238 Y91.182 E2.01099
G1 X133.971 Y91.449 E.0119
G1 X88.764 Y46.242 E2.01099
G1 X88.496 Y46.51 E.0119
M73 P2 R68
G1 X133.703 Y91.717 E2.01099
G1 X133.436 Y91.984 E.0119
G1 X88.229 Y46.777 E2.01099
G1 X87.961 Y47.045 E.0119
G1 X133.168 Y92.252 E2.01099
G1 X132.901 Y92.519 E.0119
G1 X87.694 Y47.312 E2.01099
G1 X87.426 Y47.58 E.0119
G1 X132.633 Y92.787 E2.01099
G1 X132.366 Y93.054 E.0119
G1 X87.159 Y47.847 E2.01099
G1 X86.891 Y48.115 E.0119
G1 X132.098 Y93.322 E2.01099
G1 X131.831 Y93.589 E.0119
M73 P2 R67
G1 X86.624 Y48.382 E2.01099
G1 X86.356 Y48.65 E.0119
G1 X131.563 Y93.857 E2.01099
G1 X131.296 Y94.124 E.0119
G1 X86.089 Y48.917 E2.01099
G1 X85.821 Y49.185 E.0119
G1 X131.028 Y94.392 E2.01099
G1 X130.761 Y94.659 E.0119
G1 X85.554 Y49.452 E2.01099
G1 X85.286 Y49.72 E.0119
G1 X130.493 Y94.927 E2.01099
G1 X130.226 Y95.194 E.0119
M73 P3 R67
G1 X85.019 Y49.987 E2.01099
G1 X84.752 Y50.255 E.0119
G1 X129.958 Y95.462 E2.01099
G1 X129.691 Y95.729 E.0119
G1 X84.484 Y50.522 E2.01099
G1 X84.217 Y50.79 E.0119
G1 X129.423 Y95.997 E2.01099
G1 X129.156 Y96.264 E.0119
G1 X83.949 Y51.057 E2.01099
G1 X83.682 Y51.325 E.0119
G1 X128.889 Y96.532 E2.01099
G1 X128.621 Y96.799 E.0119
G1 X83.414 Y51.592 E2.01099
G1 X83.147 Y51.86 E.0119
G1 X128.354 Y97.067 E2.01099
G1 X128.086 Y97.334 E.0119
G1 X82.879 Y52.127 E2.01099
G1 X82.612 Y52.395 E.0119
G1 X127.819 Y97.602 E2.01099
G1 X127.551 Y97.869 E.0119
G1 X82.344 Y52.662 E2.01099
G1 X82.077 Y52.93 E.0119
G1 X127.284 Y98.137 E2.01099
G1 X127.016 Y98.404 E.0119
G1 X81.809 Y53.197 E2.01099
G1 X81.542 Y53.465 E.0119
M73 P4 R66
G1 X126.749 Y98.672 E2.01099
G1 X126.481 Y98.939 E.0119
G1 X81.274 Y53.732 E2.01099
G1 X81.007 Y54 E.0119
G1 X126.214 Y99.207 E2.01099
G1 X125.946 Y99.474 E.0119
G1 X80.739 Y54.267 E2.01099
G1 X80.472 Y54.535 E.0119
G1 X125.679 Y99.742 E2.01099
G1 X125.411 Y100.009 E.0119
G1 X80.204 Y54.802 E2.01099
G1 X79.937 Y55.07 E.0119
G1 X125.144 Y100.276 E2.01099
G1 X124.876 Y100.544 E.0119
G1 X79.669 Y55.337 E2.01099
G1 X79.402 Y55.605 E.0119
G1 X124.609 Y100.811 E2.01099
G1 X124.341 Y101.079 E.0119
G1 X79.134 Y55.872 E2.01099
G1 X78.867 Y56.139 E.0119
G1 X124.074 Y101.346 E2.01099
G1 X123.806 Y101.614 E.0119
G1 X78.599 Y56.407 E2.01099
G1 X78.332 Y56.674 E.0119
G1 X123.539 Y101.881 E2.01099
G1 X123.271 Y102.149 E.0119
M73 P5 R66
G1 X78.064 Y56.942 E2.01099
G1 X77.797 Y57.209 E.0119
G1 X123.004 Y102.416 E2.01099
G1 X122.736 Y102.684 E.0119
G1 X77.529 Y57.477 E2.01099
G1 X77.262 Y57.744 E.0119
G1 X122.469 Y102.951 E2.01099
G1 X122.201 Y103.219 E.0119
G1 X76.994 Y58.012 E2.01099
G1 X76.727 Y58.279 E.0119
M73 P5 R65
G1 X121.934 Y103.486 E2.01099
G1 X121.666 Y103.754 E.0119
G1 X76.459 Y58.547 E2.01099
G1 X76.192 Y58.814 E.0119
G1 X121.399 Y104.021 E2.01099
G1 X121.131 Y104.289 E.0119
G1 X75.924 Y59.082 E2.01099
G1 X75.657 Y59.349 E.0119
G1 X120.864 Y104.556 E2.01099
G1 X120.596 Y104.824 E.0119
G1 X75.389 Y59.617 E2.01099
G1 X75.122 Y59.884 E.0119
G1 X120.329 Y105.091 E2.01099
G1 X120.061 Y105.359 E.0119
G1 X74.854 Y60.152 E2.01099
G1 X74.587 Y60.419 E.0119
M73 P6 R65
G1 X119.794 Y105.626 E2.01099
G1 X119.526 Y105.894 E.0119
G1 X74.319 Y60.687 E2.01099
G1 X74.052 Y60.954 E.0119
G1 X119.259 Y106.161 E2.01099
G1 X118.991 Y106.429 E.0119
G1 X73.784 Y61.222 E2.01099
G1 X73.517 Y61.489 E.0119
G1 X118.724 Y106.696 E2.01099
G1 X118.456 Y106.964 E.0119
G1 X73.249 Y61.757 E2.01099
G1 X72.982 Y62.024 E.0119
G1 X118.189 Y107.231 E2.01099
G1 X117.921 Y107.499 E.0119
G1 X72.714 Y62.292 E2.01099
G1 X72.447 Y62.559 E.0119
G1 X117.654 Y107.766 E2.01099
G1 X117.386 Y108.034 E.0119
G1 X72.179 Y62.827 E2.01099
G1 X71.912 Y63.094 E.0119
G1 X117.119 Y108.301 E2.01099
G1 X116.851 Y108.569 E.0119
M73 P6 R64
G1 X71.644 Y63.362 E2.01099
G1 X71.377 Y63.629 E.0119
G1 X116.584 Y108.836 E2.01099
G1 X116.316 Y109.104 E.0119
M73 P7 R64
G1 X71.109 Y63.897 E2.01099
G1 X70.842 Y64.164 E.0119
G1 X116.049 Y109.371 E2.01099
G1 X115.781 Y109.639 E.0119
G1 X70.574 Y64.432 E2.01099
G1 X70.307 Y64.699 E.0119
G1 X115.514 Y109.906 E2.01099
G1 X115.246 Y110.174 E.0119
G1 X70.039 Y64.967 E2.01099
G1 X69.772 Y65.234 E.0119
G1 X114.979 Y110.441 E2.01099
G1 X114.711 Y110.709 E.0119
G1 X69.504 Y65.502 E2.01099
G1 X69.237 Y65.769 E.0119
G1 X114.444 Y110.976 E2.01099
G1 X114.176 Y111.244 E.0119
G1 X68.97 Y66.037 E2.01099
G1 X68.702 Y66.304 E.0119
G1 X113.909 Y111.511 E2.01099
G1 X113.641 Y111.779 E.0119
G1 X68.435 Y66.572 E2.01099
G1 X68.167 Y66.839 E.0119
G1 X113.374 Y112.046 E2.01099
G1 X113.107 Y112.314 E.0119
G1 X67.9 Y67.107 E2.01099
G1 X67.632 Y67.374 E.0119
M73 P8 R64
G1 X112.839 Y112.581 E2.01099
G1 X112.572 Y112.849 E.0119
G1 X67.365 Y67.642 E2.01099
G1 X67.097 Y67.909 E.0119
G1 X112.304 Y113.116 E2.01099
G1 X112.037 Y113.384 E.0119
M73 P8 R63
G1 X66.83 Y68.177 E2.01099
G1 X66.562 Y68.444 E.0119
G1 X111.769 Y113.651 E2.01099
G1 X111.502 Y113.919 E.0119
G1 X66.295 Y68.712 E2.01099
G1 X66.027 Y68.979 E.0119
G1 X111.234 Y114.186 E2.01099
G1 X110.967 Y114.454 E.0119
G1 X65.76 Y69.247 E2.01099
G1 X65.492 Y69.514 E.0119
G1 X110.699 Y114.721 E2.01099
G1 X110.432 Y114.989 E.0119
G1 X65.225 Y69.782 E2.01099
G1 X64.957 Y70.049 E.0119
G1 X110.164 Y115.256 E2.01099
G1 X109.897 Y115.524 E.0119
G1 X64.69 Y70.317 E2.01099
G1 X64.422 Y70.584 E.0119
G1 X109.629 Y115.791 E2.01099
G1 X109.362 Y116.058 E.0119
M73 P9 R63
G1 X64.155 Y70.852 E2.01099
G1 X63.887 Y71.119 E.0119
G1 X109.094 Y116.326 E2.01099
G1 X108.827 Y116.593 E.0119
G1 X63.62 Y71.387 E2.01099
G1 X63.352 Y71.654 E.0119
G1 X108.559 Y116.861 E2.01099
G1 X108.292 Y117.128 E.0119
G1 X63.085 Y71.921 E2.01099
G1 X62.817 Y72.189 E.0119
G1 X108.024 Y117.396 E2.01099
G1 X107.757 Y117.663 E.0119
G1 X62.55 Y72.456 E2.01099
G1 X62.282 Y72.724 E.0119
G1 X107.489 Y117.931 E2.01099
G1 X107.222 Y118.198 E.0119
G1 X62.015 Y72.991 E2.01099
G1 X61.747 Y73.259 E.0119
M73 P9 R62
G1 X106.954 Y118.466 E2.01099
G1 X106.687 Y118.733 E.0119
G1 X61.48 Y73.526 E2.01099
G1 X61.212 Y73.794 E.0119
G1 X106.419 Y119.001 E2.01099
G1 X106.152 Y119.268 E.0119
G1 X60.945 Y74.061 E2.01099
G1 X60.677 Y74.329 E.0119
M73 P10 R62
G1 X105.884 Y119.536 E2.01099
G1 X105.617 Y119.803 E.0119
G1 X60.41 Y74.596 E2.01099
G1 X60.142 Y74.864 E.0119
G1 X105.349 Y120.071 E2.01099
G1 X105.082 Y120.338 E.0119
G1 X59.875 Y75.131 E2.01099
G1 X59.607 Y75.399 E.0119
G1 X104.814 Y120.606 E2.01099
G1 X104.547 Y120.873 E.0119
G1 X59.34 Y75.666 E2.01099
G1 X59.072 Y75.934 E.0119
G1 X104.279 Y121.141 E2.01099
G1 X104.012 Y121.408 E.0119
G1 X58.805 Y76.201 E2.01099
G1 X58.537 Y76.469 E.0119
G1 X103.744 Y121.676 E2.01099
G1 X103.477 Y121.943 E.0119
G1 X58.27 Y76.736 E2.01099
G1 X58.002 Y77.004 E.0119
G1 X103.209 Y122.211 E2.01099
G1 X102.942 Y122.478 E.0119
G1 X57.735 Y77.271 E2.01099
G1 X57.467 Y77.539 E.0119
G1 X102.674 Y122.746 E2.01099
G1 X102.407 Y123.013 E.0119
M73 P11 R62
G1 X57.2 Y77.806 E2.01099
G1 X56.932 Y78.074 E.0119
G1 X102.139 Y123.281 E2.01099
G1 X101.872 Y123.548 E.0119
M73 P11 R61
G1 X56.665 Y78.341 E2.01099
G1 X56.397 Y78.609 E.0119
G1 X101.604 Y123.816 E2.01099
G1 X101.337 Y124.083 E.0119
G1 X56.13 Y78.876 E2.01099
G1 X55.862 Y79.144 E.0119
G1 X101.069 Y124.351 E2.01099
G1 X100.802 Y124.618 E.0119
G1 X55.595 Y79.411 E2.01099
G1 X55.327 Y79.679 E.0119
G1 X100.534 Y124.886 E2.01099
G1 X100.267 Y125.153 E.0119
G1 X55.06 Y79.946 E2.01099
G1 X54.792 Y80.214 E.0119
G1 X99.999 Y125.421 E2.01099
G1 X99.732 Y125.688 E.0119
G1 X54.525 Y80.481 E2.01099
G1 X54.257 Y80.749 E.0119
G1 X99.464 Y125.956 E2.01099
G1 X99.197 Y126.223 E.0119
G1 X53.99 Y81.016 E2.01099
G1 X53.723 Y81.284 E.0119
M73 P12 R61
G1 X98.929 Y126.491 E2.01099
G1 X98.662 Y126.758 E.0119
G1 X53.455 Y81.551 E2.01099
G1 X53.188 Y81.819 E.0119
G1 X98.394 Y127.026 E2.01099
G1 X98.127 Y127.293 E.0119
G1 X52.92 Y82.086 E2.01099
G1 X52.653 Y82.354 E.0119
G1 X97.859 Y127.561 E2.01099
G1 X97.592 Y127.828 E.0119
G1 X52.385 Y82.621 E2.01099
G1 X52.118 Y82.889 E.0119
G1 X97.325 Y128.096 E2.01099
G1 X97.057 Y128.363 E.0119
M73 P12 R60
G1 X51.85 Y83.156 E2.01099
G1 X51.583 Y83.424 E.0119
G1 X96.79 Y128.631 E2.01099
G1 X96.522 Y128.898 E.0119
G1 X51.315 Y83.691 E2.01099
G1 X51.048 Y83.959 E.0119
G1 X96.255 Y129.166 E2.01099
G1 X95.987 Y129.433 E.0119
G1 X50.78 Y84.226 E2.01099
G1 X50.513 Y84.494 E.0119
G1 X95.72 Y129.701 E2.01099
G1 X95.452 Y129.968 E.0119
M73 P13 R60
G1 X50.245 Y84.761 E2.01099
G1 X49.978 Y85.029 E.0119
G1 X95.185 Y130.236 E2.01099
G1 X94.917 Y130.503 E.0119
G1 X49.71 Y85.296 E2.01099
G1 X49.443 Y85.564 E.0119
G1 X94.65 Y130.771 E2.01099
G1 X94.382 Y131.038 E.0119
G1 X49.175 Y85.831 E2.01099
G1 X48.908 Y86.099 E.0119
G1 X94.115 Y131.305 E2.01099
G1 X93.847 Y131.573 E.0119
G1 X48.64 Y86.366 E2.01099
G1 X48.373 Y86.634 E.0119
G1 X93.58 Y131.84 E2.01099
G1 X93.312 Y132.108 E.0119
G1 X48.105 Y86.901 E2.01099
G1 X47.838 Y87.169 E.0119
G1 X93.045 Y132.375 E2.01099
G1 X92.777 Y132.643 E.0119
G1 X47.57 Y87.436 E2.01099
G1 X47.303 Y87.703 E.0119
G1 X92.51 Y132.91 E2.01099
G1 X92.242 Y133.178 E.0119
G1 X47.035 Y87.971 E2.01099
G1 X46.768 Y88.238 E.0119
M73 P14 R59
G1 X91.975 Y133.445 E2.01099
G1 X91.707 Y133.713 E.0119
G1 X46.5 Y88.506 E2.01099
G1 X46.233 Y88.773 E.0119
G1 X91.44 Y133.98 E2.01099
G1 X91.172 Y134.248 E.0119
G1 X45.965 Y89.041 E2.01099
G1 X45.698 Y89.308 E.0119
G1 X90.905 Y134.515 E2.01099
G1 X90.637 Y134.783 E.0119
G1 X45.31 Y89.456 E2.01632
M204 P1000
; stop printing object Gem.stl id:0 copy 0
M106 S84.15
;LAYER_CHANGE
;Z:0.35
;HEIGHT:0.15
;BEFORE_LAYER_CHANGE
G92 E0.0
;0.35


G1 E-2.24 F4200
;WIPE_START
G1 F7200
G1 X46.474 Y90.62 E-.912
;WIPE_END
G1 E-.048 F4200
G1 Z.4 F720
;AFTER_LAYER_CHANGE
;0.35
G1 X44.036 Y93.057 F9000
G1 Z.35 F720
G1 E3.2 F2400
;TYPE:Skirt/Brim
;WIDTH:0.42
G1 X42.236 Y91.257 E.06157
G1 X41.589 Y90.056 E.033
G1 X41.708 Y88.697 E.033
G1 X42.236 Y87.896 E.02321
G1 X88.956 Y41.176 E1.59794
G1 X90.157 Y40.528 E.033
G1 X91.516 Y40.648 E.033
G1 X92.318 Y41.176 E.02321
G1 X139.038 Y87.896 E1.59794
G1 X139.685 Y89.097 E.033
G1 X139.565 Y90.456 E.033
G1 X139.038 Y91.257 E.02321
G1 X92.318 Y137.977 E1.59794
G1 X91.117 Y138.625 E.033
G1 X89.757 Y138.505 E.033
G1 X88.956 Y137.977 E.02321
G1 X44.079 Y93.1 E1.53492
; printing object Gem.stl id:0 copy 0
G1 E-2.24 F4200
;WIPE_START
G1 F7200
G1 X42.915 Y91.936 E-.912
;WIPE_END
G1 E-.048 F4200
G1 Z.55 F720
G1 X90.637 Y134.915 F9000
G1 Z.35 F720
G1 E3.2 F2400
M204 P800
;TYPE:Perimeter
;WIDTH:0.449999
G1 X45.298 Y89.576 E1.67065
G1 X90.637 Y44.238 E1.67065
G1 X135.975 Y89.576 E1.67065
G1 X90.679 Y134.872 E1.66908
M204 P1000
G1 X90.637 Y135.506 F9000
M204 P800
;TYPE:External perimeter
G1 F1800
G1 X44.707 Y89.576 E1.69242
G1 X90.637 Y43.647 E1.69242
G1 X136.566 Y89.576 E1.69242
G1 X90.679 Y135.463 E1.69086
M204 P1000
M73 P15 R59
G1 X90.437 Y135.159 F9000
G1 E-2.24 F4200
;WIPE_START
G1 F7200
G1 X89.514 Y134.301 E-.912
;WIPE_END
G1 E-.048 F4200
G1 Z.55 F720
G1 X135.664 Y89.442 F9000
G1 Z.35 F720
G1 E3.2 F2400
;TYPE:Solid infill
;WIDTH:0.452646
G1 F4800
G1 X90.636 Y134.471 E1.66973
G1 X90.339 Y134.173 E.01102
G1 X135.234 Y89.278 E1.6648
G1 X134.936 Y88.981 E.01102
G1 X90.041 Y133.876 E1.6648
G1 X89.744 Y133.579 E.01102
G1 X134.639 Y88.683 E1.6648
G1 X134.342 Y88.386 E.01102
G1 X89.447 Y133.281 E1.6648
G1 X89.149 Y132.984 E.01102
G1 X134.045 Y88.089 E1.6648
G1 X133.747 Y87.792 E.01102
G1 X88.852 Y132.687 E1.6648
G1 X88.555 Y132.39 E.01102
G1 X133.45 Y87.494 E1.6648
G1 X133.153 Y87.197 E.01102
G1 X88.257 Y132.092 E1.6648
G1 X87.96 Y131.795 E.01102
G1 X132.855 Y86.9 E1.6648
G1 X132.558 Y86.602 E.01102
G1 X87.663 Y131.498 E1.6648
G1 X87.365 Y131.2 E.01102
G1 X132.261 Y86.305 E1.6648
G1 X131.963 Y86.008 E.01102
G1 X87.068 Y130.903 E1.6648
G1 X86.771 Y130.606 E.01102
G1 X131.666 Y85.71 E1.6648
G1 X131.369 Y85.413 E.01102
G1 X86.474 Y130.308 E1.6648
G1 X86.176 Y130.011 E.01102
G1 X131.071 Y85.116 E1.6648
G1 X130.774 Y84.818 E.01102
G1 X85.879 Y129.714 E1.6648
G1 X85.582 Y129.416 E.01102
M73 P15 R58
G1 X130.477 Y84.521 E1.6648
G1 X130.18 Y84.224 E.01102
G1 X85.284 Y129.119 E1.6648
G1 X84.987 Y128.822 E.01102
G1 X129.882 Y83.927 E1.6648
G1 X129.585 Y83.629 E.01102
G1 X84.69 Y128.525 E1.6648
G1 X84.392 Y128.227 E.01102
G1 X129.288 Y83.332 E1.6648
G1 X128.99 Y83.035 E.01102
G1 X84.095 Y127.93 E1.6648
G1 X83.798 Y127.633 E.01102
G1 X128.693 Y82.737 E1.6648
G1 X128.396 Y82.44 E.01102
G1 X83.5 Y127.335 E1.6648
G1 X83.203 Y127.038 E.01102
G1 X128.098 Y82.143 E1.6648
G1 X127.801 Y81.845 E.01102
G1 X82.906 Y126.741 E1.6648
G1 X82.609 Y126.443 E.01102
G1 X127.504 Y81.548 E1.6648
G1 X127.206 Y81.251 E.01102
G1 X82.311 Y126.146 E1.6648
G1 X82.014 Y125.849 E.01102
G1 X126.909 Y80.953 E1.6648
G1 X126.612 Y80.656 E.01102
G1 X81.717 Y125.551 E1.6648
G1 X81.419 Y125.254 E.01102
G1 X126.315 Y80.359 E1.6648
G1 X126.017 Y80.062 E.01102
G1 X81.122 Y124.957 E1.6648
